!!!!SEGMENT: pl-cz--ii-123--006_kottritsch-franciszek--mittit-ad-virginem-qui-nobis-tribuat.krn
!!!cenid: 17xx:932
!!!COM: Kottritsch, Franciszek
!!!COM-rismID: pe30040598
!!!CDT: ~1727-1787
!!!CNT:
!!!OPR: Mittit ad virginem
!!!OTL: Qui nobis tribuat
!!!OMV: 004
!!!PDT:
!!!AGN: Sacred
!!!SMS-siglum: PL-CZ
!!!SMS-shelfmark: II-123
!!!SMS-shelfwork: 002-004 M
!!!SMS-variant:
!!!SMS-altvar:
!!!NIFC-rismSourceID: 300000621
!!!NIFC-islandoraID: pl-cz:32159
!!!URL-pdf-islandora: https://repozytorium.nifc.pl/islandora/object/pl-cz%3A32159/datastream/PDF/view
!!!URL-scan:
!!!ONB-nifc: UWAGA: części Mittit ad virginem: Mittit ad virginem, Zdrowaś bądź Maria, Super bientium, Qui nobis tribuat. Uwaga: numeracja części od 003. Rorate caeli to osobny utwór
!!!AIN: 1 alto 1 bass 2 oboe 1 organ 2 soprn 1 tenor 2 violn
!!!key: F
**kern	**fba	**kern	**kern	**kern	**text	**kern	**text	**kern	**text	**kern	**kern	**text	**kern	**kern
*	*	*group3	*group3	*group2	*	*group2	*	*group2	*	*group2	*group2	*	*group1	*group1
*part10	*part10	*part9	*part8	*part7	*part7	*part6	*part6	*part5	*part5	*part4	*part3	*part3	*part2	*part1
*staff10	*	*staff9	*staff8	*staff7	*staff7	*staff6	*staff6	*staff5	*staff5	*staff4	*staff3	*staff3	*staff2	*staff1
*I"Organo.	*	*I"Violino Secundo	*I"Violino Primo.	*I"Baſso.	*	*I"Tenore	*	*I"Alto.	*	*I"Canto Secundo	*I"Canto. Primo.	*	*I"Hoboa Secundo.	*I"Hoboa Primo.
*I'org	*	*I'vl 2	*I'vl 1	*I'B	*	*I'T	*	*I'A	*	*I'S 2	*I'S 1	*	*I'ob 2	*I'ob 1
*Iorgan	*	*Ivioln	*Ivioln	*Ibass	*	*Itenor	*	*Ialto	*	*Isoprn	*Isoprn	*	*Ioboe	*Ioboe
*ICklav	*	*ICstr	*ICstr	*ICvox	*	*ICvox	*	*ICvox	*	*ICvox	*ICvox	*	*ICww	*ICww
*IGcont	*	*	*	*IGcoro	*	*IGcoro	*	*IGcoro	*	*IGcoro	*IGcoro	*	*	*
*clefF4	*	*clefG2	*clefG2	*clefF4	*	*clefC4	*	*clefC3	*	*	*clefC1	*	*	*
*k[b-]	*	*k[b-]	*k[b-]	*k[b-]	*	*k[b-]	*	*k[b-]	*	*	*k[b-]	*	*	*
*F:	*	*F:	*F:	*F:	*	*F:	*	*F:	*	*	*F:	*	*	*
*M3/4	*	*M3/4	*M3/4	*M3/4	*	*M3/4	*	*M3/4	*	*	*M3/4	*	*	*
=1	=1	=1	=1	=1	=1	=1	=1	=1	=1	=1	=1	=1	=1	=1
!	!	!	!	!	!	!	!	!	!	!LO:TX:t=P:problem=wyłącznie w części "Zdrowaś bądź Maria"	! 	!	!LO:TX:t=P:problem=wyłącznie w części "Zdrowaś bądź Maria"	!LO:TX:t=P:problem=wyłącznie w części "Zdrowaś bądź Maria"
4F\	.	4cc\	4aa\	4F\	Qvi	4c\	Qvi	4a\	Qvi	2.ryy	4ff\	Qvi	2.ryy	2.ryy
4B-\	.	4dd\	4ff\	4B-\	no-	4d\	no-	4f\	no-	.	4dd\	no-	.	.
4B-\	.	4dd\	4ff\	4B-\	-bis	4d\	-bis	4f\	-bis	.	4b-X\	-bis	.	.
=2	=2	=2	=2	=2	=2	=2	=2	=2	=2	=2	=2	=2	=2	=2
4.A\	6	4.cc\	4.ff\	4.A\	tri-	4.c\	tri-	4.f\	tri-	2.ryy	4.ff\	tri-	2.ryy	2.ryy
8A\	.	8cc\	8ff\	8A\	-bu-	8c\	-bu-	8f\	-bu-	.	8cc\	-bu-	.	.
4A\	.	4cc\	4ff\	4A\	-at	4c\	-at	4f\	-at	.	4a\	-at	.	.
!	!	!	!	!	!	!	!	!	!	!	!LO:LB:g=original	!	!	!
=3	=3	=3	=3	=3	=3	=3	=3	=3	=3	=3	=3	=3	=3	=3
4B-\	.	4dd\	4ff\	4B-\	pec-	4d\	pec-	4f\	pec-	2.ryy	4dd\	pec-	2.ryy	2.ryy
4A\	6 4	4dd\	4ff\	4A\	-ca-	4d\	-ca-	4f\	-ca-	.	4cc\	-ca-	.	.
4G\	6	4ee\	4bb-\	4G\	-ti	4e\	-ti	4g\	-ti	.	4b-X\	-ti	.	.
=4	=4	=4	=4	=4	=4	=4	=4	=4	=4	=4	=4	=4	=4	=4
4.F\	.	4.cc\	4.aa\	4.F\	ve-	4.f\	ve-	4.a\	ve-	2.ryy	4.cc\	ve-	2.ryy	2.ryy
8F\	.	8cc\	8aa\	8F\	-ni-	8f\	-ni-	8a\	-ni-	.	8cc\	-ni-	.	.
4F\	.	4cc\	4aa\	4F\	-am	4f\	-am	4a\	-am	.	4cc,<\	-am	.	.
!LO:LB:g=original	!	!	!	!	!	!	!	!	!	!	!	!	!	!
=5	=5	=5	=5	=5	=5	=5	=5	=5	=5	=5	=5	=5	=5	=5
4F#X\	.	4dd\	4aa\	4F#X\	re-	4d\	re-	4a\	re-	2.ryy	4a\	re-	2.ryy	2.ryy
4F#\	6	4dd\	4aa\	4F#\	-a-	4d\	-a-	4a\	-a-	.	4dd\	-a-	.	.
4F#\	.	4dd\	4aa\	4F#\	-tus	4d\	-tus	4a\	-tus	.	4a\	-tus	.	.
=6	=6	=6	=6	=6	=6	=6	=6	=6	=6	=6	=6	=6	=6	=6
4.G\	-	4.b-X\	4.gg\	4.G\	de-	4.d\	de-	4.b-X\	de-	2.ryy	4.g/	de-	2.ryy	2.ryy
8G\	.	8b-\	8gg\	8G\	-le-	8d\	-le-	8b-\	-le-	.	8g/	-le-	.	.
4G\	.	4b-\	4gg\	4G\	-at	4d\	-at	4b-\	-at	.	4g/	-at	.	.
!	!	!	!	!	!	!	!	!LO:LB:g=original	!	!	!	!	!	!
=7	=7	=7	=7	=7	=7	=7	=7	=7	=7	=7	=7	=7	=7	=7
4E\	6	4cc\	4gg\	4E\	et	4c\	et	4g\	et	2.ryy	4g/	et	2.ryy	2.ryy
4C\	.	4ee\	4ccc\	4C/	do-	4c\	do-	4e\	do-	.	4ee\	do-	.	.
4E\	.	4cc\	4gg\	4E\	-net	4c\	-net	4g\	-net	.	4ee\	-net	.	.
=8	=8	=8	=8	=8	=8	=8	=8	=8	=8	=8	=8	=8	=8	=8
4.Fn\	.	4.a/	4.ff\	4.F\	Pa-	4.c\	Pa-	4.a\	Pa-	2.ryy	4.cc\	Pa-	2.ryy	2.ryy
8F\	.	8a/	8ff\	8F\	-tri-	8c\	-tri-	8a\	-tri-	.	8f/	-tri-	.	.
4F\	.	4a/	4ff\	4F\	-am	4c\	-am	4a\	-am	.	4f/	-am	.	.
!	!	!LO:LB:g=original	!	!LO:LB:g=original	!	!LO:LB:g=original	!	!	!	!	!	!	!	!
=9	=9	=9	=9	=9	=9	=9	=9	=9	=9	=9	=9	=9	=9	=9
4c\	.	4g/	4ee\	4c\	in	4G/	in	4g\	in	2.ryy	4ee\	in	2.ryy	2.ryy
4A\	6	4cc\	4ff\	4A\	ar-	4c\	ar-	4a\	ar-	.	(4ff\	ar-	.	.
4d\	.	4a/	4ff\	4d\	-ce	4A\	-ce	4f\	-ce	.	4dd\)	-ce	.	.
!	!	!	!LO:LB:g=original	!	!	!	!	!	!	!	!	!	!	!
=10	=10	=10	=10	=10	=10	=10	=10	=10	=10	=10	=10	=10	=10	=10
4B-\	6	8dd\L	4bb-\	(4B-\	Sÿ-	(4d\	Sÿ-	4g\	Sy-	2.ryy	4dd,<\	Sy-	2.ryy	2.ryy
.	.	8gg\J	.	.	.	.	.	.	.	.	.	.	.	.
4c\	.	4.ee\	4.gg\	4.c\)	.	4.G/)	.	4.e\	.	.	4.cc\	.	.	.
4C/	4	.	.	.	.	.	.	.	.	.	.	.	.	.
.	3	8ee\	8gg\	8C/	-de-	8G/	-de-	8e\	-de-	.	8cc\	-de-	.	.
=11	=11	=11	=11	=11	=11	=11	=11	=11	=11	=11	=11	=11	=11	=11
*	*	*2\right	*2\right	*2\right	*	*	*	*2\right	*	*	*2\right	*	*	*
!LO:TX:b:i:t=Zdrowas Da Cap	!	!LO:TX:b:i:t=Zdrowas będ maria Da Capo	!LO:TX:b:i:t=Zdrowas Bąd maria Dacapo	!LO:TX:b:i:t=Zdrowas Dacapo\nVolti Cito	!	!LO:TX:b:i:t=Versus Cantabitur	!	!LO:TX:b:i:t=Zdrowas DaCapo\nVolti Cito	!	!	!LO:TX:b:i:t=Zdrowas\nDacapo	!	!	!
2.FF/	.	2.ff\	2.aa\	2.F\	-rum::	2.A/	-rum::	2.f\	-rum::	2.ryy	2.cc\	-rum::	2.ryy	2.ryy
=12|!	=12|!	=12|!	=12|!	=12|!	=12|!	=12|!	=12|!	=12|!	=12|!	=12|!	=12|!	=12|!	=12|!	=12|!
*	*	*	*	*	*	*2\right	*	*	*	*	*	*	*2\right	*
!	!	!LO:TX:t=P:problem=fragment zapisany w partii ob 2	!	!	!	!	!	!	!	!	!	!	!	!
!	!	!LO:TX:a:i:t=Violino	!LO:TX:a:i:t=Violino	!	!	!	!	!	!	!	!	!	!	!
!LO:TX:b:i:t=Amen	!	!LO:TX:b:i:t=amen	!LO:TX:b:i:t=amen	!	!	!	!	!	!	!	!	!	!	!
2.BB-/	5	2dd\	2ff\	2.BB-/	a-	2.d\	a-	(2f\	a-	2.ryy	(2dd\	a-	2.ryy	2.ryy
.	6	4gg\	4bb-\	.	.	.	.	4g\)	.	.	4ee\)	.	.	.
=13	=13	=13	=13	=13	=13	=13	=13	=13	=13	=13	=13	=13	=13	=13
1.FF;	.	1.ff;;	1.aa;	1.FF;	-men	1.c;<	-men	1.a;<	-men	1.ryy	1.ff;<	-men	1.ryy	1.ryy
==	==	==	==	==	==	==	==	==	==	==	==	==	==	==
*-	*-	*-	*-	*-	*-	*-	*-	*-	*-	*-	*-	*-	*-	*-
!!!system-decoration: [(g1)][(g2)][(g3)]<s10>
!!!RDF**kern: < = below
!!!ENC: Marta Chmielewska
!!!END: 2020-08-12
!!!ENC: Andrzej Kubiczek
!!!END: 2022-02-05
